!!!COM: Music21
!!!OTL: march_Ode-To-Joy
!!!OMV: march_Ode-To-Joy
**kern
*clefG2
*k[f#c#]
*D:
*M4/4
=1
4dd 4ff#
4ff#
4gg
4aa
=
4.aa
8gg
4ff#
4ee
=
4dd
4dd
4ee
4ff#
=
4.ff#
8ee
2ee
=
4dd 4ff#
4ff#
4gg
4aa
=
4.aa
8gg
4ff#
4ee
=
4dd
4dd
4ee
4ff#
=
4.ee
8dd
2dd
!!linebreak:original
=
4ee
4ee
4ff#
4dd
=
4ee
8ff#L
8ggJ
4ff#
4dd
=
4ee
8ff#L
8ggJ
4ff#
4ee
=
4dd
4ee
2a
=
4ff#
4ff#
4gg
4aa
=
4.aa
8gg
4ff#
4ee
=
4dd
4dd
4ee
4ff#
=
4.ee
8dd
2dd
=||
*-
